images/50640717.svg

<?xml version="1.0" encoding="UTF-8"?>
<svg xmlns="http://www.w3.org/2000/svg" xmlns:xlink="http://www.w3.org/1999/xlink" width="300pt" height="300pt" viewBox="0 0 300 300" version="1.1">
<defs>
<g>
<symbol overflow="visible" id="glyph0-0">
<path style="stroke:none;" d="M 0.453125 1.59375 L 0.453125 -6.34375 L 4.953125 -6.34375 L 4.953125 1.59375 Z M 0.953125 1.09375 L 4.453125 1.09375 L 4.453125 -5.84375 L 0.953125 -5.84375 Z M 0.953125 1.09375 "/>
</symbol>
<symbol overflow="visible" id="glyph0-1">
<path style="stroke:none;" d="M 0.890625 -6.5625 L 4.65625 -6.5625 L 4.65625 -5.8125 L 1.765625 -5.8125 L 1.765625 -3.875 L 4.375 -3.875 L 4.375 -3.140625 L 1.765625 -3.140625 L 1.765625 0 L 0.890625 0 Z M 0.890625 -6.5625 "/>
</symbol>
<symbol overflow="visible" id="glyph0-2">
<path style="stroke:none;" d="M 3.546875 -5.953125 C 2.898438 -5.953125 2.382812 -5.710938 2 -5.234375 C 1.625 -4.753906 1.4375 -4.101562 1.4375 -3.28125 C 1.4375 -2.445312 1.625 -1.789062 2 -1.3125 C 2.382812 -0.832031 2.898438 -0.59375 3.546875 -0.59375 C 4.191406 -0.59375 4.703125 -0.832031 5.078125 -1.3125 C 5.453125 -1.789062 5.640625 -2.445312 5.640625 -3.28125 C 5.640625 -4.101562 5.453125 -4.753906 5.078125 -5.234375 C 4.703125 -5.710938 4.191406 -5.953125 3.546875 -5.953125 Z M 3.546875 -6.6875 C 4.460938 -6.6875 5.195312 -6.375 5.75 -5.75 C 6.300781 -5.132812 6.578125 -4.3125 6.578125 -3.28125 C 6.578125 -2.238281 6.300781 -1.410156 5.75 -0.796875 C 5.195312 -0.179688 4.460938 0.125 3.546875 0.125 C 2.617188 0.125 1.878906 -0.179688 1.328125 -0.796875 C 0.773438 -1.410156 0.5 -2.238281 0.5 -3.28125 C 0.5 -4.3125 0.773438 -5.132812 1.328125 -5.75 C 1.878906 -6.375 2.617188 -6.6875 3.546875 -6.6875 Z M 3.546875 -6.6875 "/>
</symbol>
<symbol overflow="visible" id="glyph0-3">
<path style="stroke:none;" d="M 0.890625 -6.5625 L 2.078125 -6.5625 L 4.984375 -1.078125 L 4.984375 -6.5625 L 5.84375 -6.5625 L 5.84375 0 L 4.65625 0 L 1.75 -5.484375 L 1.75 0 L 0.890625 0 Z M 0.890625 -6.5625 "/>
</symbol>
<symbol overflow="visible" id="glyph0-4">
<path style="stroke:none;" d="M 0.890625 -6.5625 L 1.765625 -6.5625 L 1.765625 -3.875 L 5 -3.875 L 5 -6.5625 L 5.890625 -6.5625 L 5.890625 0 L 5 0 L 5 -3.125 L 1.765625 -3.125 L 1.765625 0 L 0.890625 0 Z M 0.890625 -6.5625 "/>
</symbol>
</g>
</defs>
<g id="surface27141">
<rect x="0" y="0" width="300" height="300" style="fill:rgb(100%,100%,100%);fill-opacity:1;stroke:none;"/>
<path style="fill:none;stroke-width:1.2;stroke-linecap:butt;stroke-linejoin:miter;stroke:rgb(20%,80%,80%);stroke-opacity:1;stroke-miterlimit:10;" d="M 47.261719 180.652344 L 51.605469 169.660156 "/>
<path style="fill:none;stroke-width:1.2;stroke-linecap:butt;stroke-linejoin:miter;stroke:rgb(0%,0%,0%);stroke-opacity:1;stroke-miterlimit:10;" d="M 51.605469 169.660156 L 55.953125 158.664062 "/>
<path style=" stroke:none;fill-rule:nonzero;fill:rgb(100%,100%,100%);fill-opacity:1;" d="M 41.261719 175.152344 L 47.261719 175.152344 L 47.261719 186.152344 L 41.261719 186.152344 Z M 41.261719 175.152344 "/>
<g style="fill:rgb(20%,80%,80%);fill-opacity:1;">
  <use xlink:href="#glyph0-1" x="41.261719" y="183.81543"/>
</g>
<path style="fill:none;stroke-width:1.2;stroke-linecap:butt;stroke-linejoin:miter;stroke:rgb(0%,0%,0%);stroke-opacity:1;stroke-miterlimit:10;" d="M 55.953125 158.664062 L 41.257812 140.148438 "/>
<path style="fill:none;stroke-width:1.2;stroke-linecap:butt;stroke-linejoin:miter;stroke:rgb(0%,0%,0%);stroke-opacity:1;stroke-miterlimit:10;" d="M 58.839844 153.355469 L 47.082031 138.539062 "/>
<path style="fill:none;stroke-width:1.2;stroke-linecap:butt;stroke-linejoin:miter;stroke:rgb(0%,0%,0%);stroke-opacity:1;stroke-miterlimit:10;" d="M 79.335938 155.199219 L 55.953125 158.664062 "/>
<path style="fill:none;stroke-width:1.2;stroke-linecap:butt;stroke-linejoin:miter;stroke:rgb(0%,0%,0%);stroke-opacity:1;stroke-miterlimit:10;" d="M 41.257812 140.148438 L 49.945312 118.160156 "/>
<path style="fill:none;stroke-width:1.2;stroke-linecap:butt;stroke-linejoin:miter;stroke:rgb(0%,0%,0%);stroke-opacity:1;stroke-miterlimit:10;" d="M 49.945312 118.160156 L 42.597656 108.902344 "/>
<path style="fill:none;stroke-width:1.2;stroke-linecap:butt;stroke-linejoin:miter;stroke:rgb(20%,80%,80%);stroke-opacity:1;stroke-miterlimit:10;" d="M 42.597656 108.902344 L 35.25 99.640625 "/>
<path style="fill:none;stroke-width:1.2;stroke-linecap:butt;stroke-linejoin:miter;stroke:rgb(0%,0%,0%);stroke-opacity:1;stroke-miterlimit:10;" d="M 49.945312 118.160156 L 73.332031 114.691406 "/>
<path style="fill:none;stroke-width:1.2;stroke-linecap:butt;stroke-linejoin:miter;stroke:rgb(0%,0%,0%);stroke-opacity:1;stroke-miterlimit:10;" d="M 53.101562 123.316406 L 71.808594 120.542969 "/>
<path style=" stroke:none;fill-rule:nonzero;fill:rgb(100%,100%,100%);fill-opacity:1;" d="M 29.25 94.140625 L 35.25 94.140625 L 35.25 105.140625 L 29.25 105.140625 Z M 29.25 94.140625 "/>
<g style="fill:rgb(20%,80%,80%);fill-opacity:1;">
  <use xlink:href="#glyph0-1" x="29.25" y="102.803711"/>
</g>
<path style="fill:none;stroke-width:1.2;stroke-linecap:butt;stroke-linejoin:miter;stroke:rgb(0%,0%,0%);stroke-opacity:1;stroke-miterlimit:10;" d="M 73.332031 114.691406 L 88.027344 133.210938 "/>
<path style="fill:none;stroke-width:1.2;stroke-linecap:butt;stroke-linejoin:miter;stroke:rgb(0%,0%,0%);stroke-opacity:1;stroke-miterlimit:10;" d="M 88.027344 133.210938 L 79.335938 155.199219 "/>
<path style="fill:none;stroke-width:1.2;stroke-linecap:butt;stroke-linejoin:miter;stroke:rgb(0%,0%,0%);stroke-opacity:1;stroke-miterlimit:10;" d="M 81.984375 133.367188 L 75.03125 150.953125 "/>
<path style="fill:none;stroke-width:1.2;stroke-linecap:butt;stroke-linejoin:miter;stroke:rgb(0%,0%,0%);stroke-opacity:1;stroke-miterlimit:10;" d="M 79.335938 155.199219 L 86.683594 164.457031 "/>
<path style="fill:none;stroke-width:1.2;stroke-linecap:butt;stroke-linejoin:miter;stroke:rgb(100%,0%,0%);stroke-opacity:1;stroke-miterlimit:10;" d="M 86.683594 164.457031 L 94.035156 173.714844 "/>
<path style="fill:none;stroke-width:1.2;stroke-linecap:butt;stroke-linejoin:miter;stroke:rgb(100%,0%,0%);stroke-opacity:1;stroke-miterlimit:10;" d="M 94.035156 173.714844 L 105.726562 171.984375 "/>
<path style="fill:none;stroke-width:1.2;stroke-linecap:butt;stroke-linejoin:miter;stroke:rgb(0%,0%,0%);stroke-opacity:1;stroke-miterlimit:10;" d="M 105.726562 171.984375 L 117.417969 170.25 "/>
<path style=" stroke:none;fill-rule:nonzero;fill:rgb(100%,100%,100%);fill-opacity:1;" d="M 90.035156 168.214844 L 98.035156 168.214844 L 98.035156 179.214844 L 90.035156 179.214844 Z M 90.035156 168.214844 "/>
<g style="fill:rgb(100%,0%,0%);fill-opacity:1;">
  <use xlink:href="#glyph0-2" x="90.035156" y="176.87793"/>
</g>
<path style="fill:none;stroke-width:1.2;stroke-linecap:butt;stroke-linejoin:miter;stroke:rgb(0%,0%,0%);stroke-opacity:1;stroke-miterlimit:10;" d="M 117.417969 170.25 L 124.765625 179.507812 "/>
<path style="fill:none;stroke-width:1.2;stroke-linecap:butt;stroke-linejoin:miter;stroke:rgb(0%,0%,100%);stroke-opacity:1;stroke-miterlimit:10;" d="M 124.765625 179.507812 L 132.113281 188.765625 "/>
<path style="fill:none;stroke-width:1.2;stroke-linecap:butt;stroke-linejoin:miter;stroke:rgb(0%,0%,0%);stroke-opacity:1;stroke-miterlimit:10;" d="M 123.246094 168.644531 L 129.125 176.050781 "/>
<path style="fill:none;stroke-width:1.2;stroke-linecap:butt;stroke-linejoin:miter;stroke:rgb(0%,0%,100%);stroke-opacity:1;stroke-miterlimit:10;" d="M 129.125 176.050781 L 135.003906 183.457031 "/>
<path style="fill:none;stroke-width:1.2;stroke-linecap:butt;stroke-linejoin:miter;stroke:rgb(0%,0%,100%);stroke-opacity:1;stroke-miterlimit:10;" d="M 126.109375 148.261719 L 121.761719 159.253906 "/>
<path style="fill:none;stroke-width:1.2;stroke-linecap:butt;stroke-linejoin:miter;stroke:rgb(0%,0%,0%);stroke-opacity:1;stroke-miterlimit:10;" d="M 121.761719 159.253906 L 117.417969 170.25 "/>
<path style="fill:none;stroke-width:1.2;stroke-linecap:butt;stroke-linejoin:miter;stroke:rgb(0%,0%,100%);stroke-opacity:1;stroke-miterlimit:10;" d="M 132.113281 188.765625 L 143.808594 187.035156 "/>
<path style="fill:none;stroke-width:1.2;stroke-linecap:butt;stroke-linejoin:miter;stroke:rgb(0%,0%,0%);stroke-opacity:1;stroke-miterlimit:10;" d="M 143.808594 187.035156 L 155.5 185.300781 "/>
<path style=" stroke:none;fill-rule:nonzero;fill:rgb(100%,100%,100%);fill-opacity:1;" d="M 129.113281 183.265625 L 136.113281 183.265625 L 136.113281 194.265625 L 129.113281 194.265625 Z M 129.113281 183.265625 "/>
<g style="fill:rgb(0%,0%,100%);fill-opacity:1;">
  <use xlink:href="#glyph0-3" x="129.113281" y="191.928711"/>
</g>
<path style="fill:none;stroke-width:1.2;stroke-linecap:butt;stroke-linejoin:miter;stroke:rgb(0%,0%,0%);stroke-opacity:1;stroke-miterlimit:10;" d="M 155.5 185.300781 L 164.613281 192.828125 "/>
<path style="fill:none;stroke-width:1.2;stroke-linecap:butt;stroke-linejoin:miter;stroke:rgb(0%,0%,100%);stroke-opacity:1;stroke-miterlimit:10;" d="M 164.613281 192.828125 L 173.726562 200.359375 "/>
<path style="fill:none;stroke-width:1.2;stroke-linecap:butt;stroke-linejoin:miter;stroke:rgb(0%,0%,0%);stroke-opacity:1;stroke-miterlimit:10;" d="M 160.867188 182.515625 L 168.15625 188.539062 "/>
<path style="fill:none;stroke-width:1.2;stroke-linecap:butt;stroke-linejoin:miter;stroke:rgb(0%,0%,100%);stroke-opacity:1;stroke-miterlimit:10;" d="M 168.15625 188.539062 L 175.445312 194.5625 "/>
<path style="fill:none;stroke-width:1.2;stroke-linecap:butt;stroke-linejoin:miter;stroke:rgb(0%,0%,0%);stroke-opacity:1;stroke-miterlimit:10;" d="M 164.191406 163.3125 L 155.5 185.300781 "/>
<path style="fill:none;stroke-width:1.2;stroke-linecap:butt;stroke-linejoin:miter;stroke:rgb(0%,0%,100%);stroke-opacity:1;stroke-miterlimit:10;" d="M 173.726562 200.359375 L 193.679688 187.679688 "/>
<path style=" stroke:none;fill-rule:nonzero;fill:rgb(100%,100%,100%);fill-opacity:1;" d="M 170.726562 194.859375 L 177.726562 194.859375 L 177.726562 205.859375 L 170.726562 205.859375 Z M 170.726562 194.859375 "/>
<g style="fill:rgb(0%,0%,100%);fill-opacity:1;">
  <use xlink:href="#glyph0-3" x="170.726562" y="203.522461"/>
</g>
<path style="fill:none;stroke-width:1.2;stroke-linecap:butt;stroke-linejoin:miter;stroke:rgb(0%,0%,100%);stroke-opacity:1;stroke-miterlimit:10;" d="M 193.679688 187.679688 L 190.730469 176.230469 "/>
<path style="fill:none;stroke-width:1.2;stroke-linecap:butt;stroke-linejoin:miter;stroke:rgb(0%,0%,0%);stroke-opacity:1;stroke-miterlimit:10;" d="M 190.730469 176.230469 L 187.785156 164.785156 "/>
<path style=" stroke:none;fill-rule:nonzero;fill:rgb(100%,100%,100%);fill-opacity:1;" d="M 186.679688 182.179688 L 200.679688 182.179688 L 200.679688 193.179688 L 186.679688 193.179688 Z M 186.679688 182.179688 "/>
<g style="fill:rgb(0%,0%,100%);fill-opacity:1;">
  <use xlink:href="#glyph0-3" x="186.679688" y="190.842773"/>
  <use xlink:href="#glyph0-4" x="193.657227" y="190.842773"/>
</g>
<path style="fill:none;stroke-width:1.2;stroke-linecap:butt;stroke-linejoin:miter;stroke:rgb(0%,0%,0%);stroke-opacity:1;stroke-miterlimit:10;" d="M 187.785156 164.785156 L 195.316406 155.671875 "/>
<path style="fill:none;stroke-width:1.2;stroke-linecap:butt;stroke-linejoin:miter;stroke:rgb(0%,0%,100%);stroke-opacity:1;stroke-miterlimit:10;" d="M 195.316406 155.671875 L 202.84375 146.558594 "/>
<path style="fill:none;stroke-width:1.2;stroke-linecap:butt;stroke-linejoin:miter;stroke:rgb(0%,0%,0%);stroke-opacity:1;stroke-miterlimit:10;" d="M 187.785156 164.785156 L 164.191406 163.3125 "/>
<path style="fill:none;stroke-width:1.2;stroke-linecap:butt;stroke-linejoin:miter;stroke:rgb(0%,0%,0%);stroke-opacity:1;stroke-miterlimit:10;" d="M 185.078125 170.1875 L 166.203125 169.011719 "/>
<path style="fill:none;stroke-width:1.2;stroke-linecap:butt;stroke-linejoin:miter;stroke:rgb(0%,0%,100%);stroke-opacity:1;stroke-miterlimit:10;" d="M 202.84375 146.558594 L 214.5 148.523438 "/>
<path style="fill:none;stroke-width:1.2;stroke-linecap:butt;stroke-linejoin:miter;stroke:rgb(0%,0%,0%);stroke-opacity:1;stroke-miterlimit:10;" d="M 214.5 148.523438 L 226.15625 150.488281 "/>
<path style=" stroke:none;fill-rule:nonzero;fill:rgb(100%,100%,100%);fill-opacity:1;" d="M 195.84375 141.058594 L 209.84375 141.058594 L 209.84375 152.058594 L 195.84375 152.058594 Z M 195.84375 141.058594 "/>
<g style="fill:rgb(0%,0%,100%);fill-opacity:1;">
  <use xlink:href="#glyph0-3" x="195.84375" y="149.72168"/>
  <use xlink:href="#glyph0-4" x="202.821289" y="149.72168"/>
</g>
<path style="fill:none;stroke-width:1.2;stroke-linecap:butt;stroke-linejoin:miter;stroke:rgb(0%,0%,0%);stroke-opacity:1;stroke-miterlimit:10;" d="M 223.550781 151.457031 L 227.675781 162.535156 "/>
<path style="fill:none;stroke-width:1.2;stroke-linecap:butt;stroke-linejoin:miter;stroke:rgb(100%,0%,0%);stroke-opacity:1;stroke-miterlimit:10;" d="M 227.675781 162.535156 L 231.804688 173.613281 "/>
<path style="fill:none;stroke-width:1.2;stroke-linecap:butt;stroke-linejoin:miter;stroke:rgb(0%,0%,0%);stroke-opacity:1;stroke-miterlimit:10;" d="M 228.761719 149.515625 L 232.890625 160.59375 "/>
<path style="fill:none;stroke-width:1.2;stroke-linecap:butt;stroke-linejoin:miter;stroke:rgb(100%,0%,0%);stroke-opacity:1;stroke-miterlimit:10;" d="M 232.890625 160.59375 L 237.015625 171.671875 "/>
<path style="fill:none;stroke-width:1.2;stroke-linecap:butt;stroke-linejoin:miter;stroke:rgb(0%,0%,0%);stroke-opacity:1;stroke-miterlimit:10;" d="M 226.15625 150.488281 L 241.214844 132.261719 "/>
<path style=" stroke:none;fill-rule:nonzero;fill:rgb(100%,100%,100%);fill-opacity:1;" d="M 230.410156 167.140625 L 238.410156 167.140625 L 238.410156 178.140625 L 230.410156 178.140625 Z M 230.410156 167.140625 "/>
<g style="fill:rgb(100%,0%,0%);fill-opacity:1;">
  <use xlink:href="#glyph0-2" x="230.410156" y="175.803711"/>
</g>
<path style="fill:none;stroke-width:1.2;stroke-linecap:butt;stroke-linejoin:miter;stroke:rgb(0%,0%,0%);stroke-opacity:1;stroke-miterlimit:10;" d="M 241.214844 132.261719 L 264.75 130.023438 "/>
<path style="fill:none;stroke-width:1.2;stroke-linecap:butt;stroke-linejoin:miter;stroke:rgb(0%,0%,0%);stroke-opacity:1;stroke-miterlimit:10;" d="M 238.976562 108.726562 L 241.214844 132.261719 "/>
<path style="fill:none;stroke-width:1.2;stroke-linecap:butt;stroke-linejoin:miter;stroke:rgb(0%,0%,0%);stroke-opacity:1;stroke-miterlimit:10;" d="M 264.75 130.023438 L 262.511719 106.488281 "/>
<path style="fill:none;stroke-width:1.2;stroke-linecap:butt;stroke-linejoin:miter;stroke:rgb(0%,0%,0%);stroke-opacity:1;stroke-miterlimit:10;" d="M 262.511719 106.488281 L 238.976562 108.726562 "/>
<path style="fill:none;stroke-width:1.2;stroke-linecap:butt;stroke-linejoin:miter;stroke:rgb(0%,0%,0%);stroke-opacity:1;stroke-miterlimit:10;" d="M 164.191406 163.3125 L 149.492188 144.792969 "/>
<path style="fill:none;stroke-width:1.2;stroke-linecap:butt;stroke-linejoin:miter;stroke:rgb(0%,0%,0%);stroke-opacity:1;stroke-miterlimit:10;" d="M 149.492188 144.792969 L 137.800781 146.527344 "/>
<path style="fill:none;stroke-width:1.2;stroke-linecap:butt;stroke-linejoin:miter;stroke:rgb(0%,0%,100%);stroke-opacity:1;stroke-miterlimit:10;" d="M 137.800781 146.527344 L 126.109375 148.261719 "/>
<path style="fill:none;stroke-width:1.2;stroke-linecap:butt;stroke-linejoin:miter;stroke:rgb(0%,0%,0%);stroke-opacity:1;stroke-miterlimit:10;" d="M 147.972656 150.644531 L 138.617188 152.03125 "/>
<path style="fill:none;stroke-width:1.2;stroke-linecap:butt;stroke-linejoin:miter;stroke:rgb(0%,0%,100%);stroke-opacity:1;stroke-miterlimit:10;" d="M 138.617188 152.03125 L 129.261719 153.417969 "/>
<path style=" stroke:none;fill-rule:nonzero;fill:rgb(100%,100%,100%);fill-opacity:1;" d="M 123.109375 142.761719 L 130.109375 142.761719 L 130.109375 153.761719 L 123.109375 153.761719 Z M 123.109375 142.761719 "/>
<g style="fill:rgb(0%,0%,100%);fill-opacity:1;">
  <use xlink:href="#glyph0-3" x="123.109375" y="151.424805"/>
</g>
</g>
</svg>

<svg xmlns="http://www.w3.org/2000/svg" xmlns:xlink="http://www.w3.org/1999/xlink" width="300pt" height="300pt" viewBox="0 0 300 300"><defs><symbol overflow="visible"><path d="M.453 1.594v-7.938h4.5v7.938zm.5-.5h3.5v-6.938h-3.5zm0 0"/></symbol><symbol overflow="visible" id="a"><path d="M.89-6.563h3.766v.75h-2.89v1.938h2.61v.734h-2.61V0H.89zm0 0"/></symbol><symbol overflow="visible" id="b"><path d="M3.547-5.953c-.65 0-1.164.242-1.547.72-.375.48-.563 1.13-.563 1.952 0 .835.188 1.49.563 1.967.383.48.898.72 1.547.72.644 0 1.156-.24 1.53-.72.376-.476.564-1.132.564-1.968 0-.822-.187-1.474-.562-1.954-.375-.477-.887-.72-1.53-.72zm0-.734c.914 0 1.648.312 2.203.937.55.617.828 1.438.828 2.47 0 1.042-.277 1.87-.828 2.483-.555.617-1.29.922-2.203.922-.93 0-1.668-.305-2.22-.922C.774-1.41.5-2.237.5-3.28c0-1.033.273-1.853.828-2.47.55-.625 1.29-.938 2.22-.938zm0 0"/></symbol><symbol overflow="visible" id="c"><path d="M.89-6.563H2.08l2.906 5.485v-5.484h.86V0H4.656L1.75-5.484V0H.89zm0 0"/></symbol><symbol overflow="visible" id="d"><path d="M.89-6.563h.876v2.688H5v-2.688h.89V0H5v-3.125H1.766V0H.89zm0 0"/></symbol></defs><g><path fill="#fff" d="M0 0h300v300H0z"/><path d="M47.262 180.652l4.343-10.992" stroke-width="1.2" stroke="#3cc" stroke-miterlimit="10" fill="none"/><path d="M51.605 169.66l4.348-10.996" stroke-width="1.2" stroke="#000" stroke-miterlimit="10" fill="none"/><path d="M41.262 175.152h6v11h-6zm0 0" fill="#fff"/><use xlink:href="#a" x="41.262" y="183.815" fill="#3cc"/><path d="M55.953 158.664l-14.695-18.516M58.84 153.355L47.082 138.54M79.336 155.2l-23.383 3.464M41.258 140.148l8.687-21.988M49.945 118.16l-7.347-9.258" stroke-width="1.2" stroke="#000" stroke-miterlimit="10" fill="none"/><path d="M42.598 108.902l-7.348-9.26" stroke-width="1.2" stroke="#3cc" stroke-miterlimit="10" fill="none"/><path d="M49.945 118.16l23.387-3.47M53.102 123.316l18.707-2.773" stroke-width="1.2" stroke="#000" stroke-miterlimit="10" fill="none"/><path d="M29.25 94.14h6v11h-6zm0 0" fill="#fff"/><use xlink:href="#a" x="29.25" y="102.804" fill="#3cc"/><path d="M73.332 114.69l14.695 18.52M88.027 133.21l-8.69 21.99M81.984 133.367l-6.953 17.586M79.336 155.2l7.348 9.257" stroke-width="1.2" stroke="#000" stroke-miterlimit="10" fill="none"/><path d="M86.684 164.457l7.35 9.258M94.035 173.715l11.692-1.73" stroke-width="1.2" stroke="#f00" stroke-miterlimit="10" fill="none"/><path d="M105.727 171.984l11.69-1.734" stroke-width="1.2" stroke="#000" stroke-miterlimit="10" fill="none"/><path d="M90.035 168.215h8v11h-8zm0 0" fill="#fff"/><use xlink:href="#b" x="90.035" y="176.878" fill="#f00"/><path d="M117.418 170.25l7.348 9.258" stroke-width="1.2" stroke="#000" stroke-miterlimit="10" fill="none"/><path d="M124.766 179.508l7.347 9.258" stroke-width="1.2" stroke="#00f" stroke-miterlimit="10" fill="none"/><path d="M123.246 168.645l5.88 7.406" stroke-width="1.2" stroke="#000" stroke-miterlimit="10" fill="none"/><path d="M129.125 176.05l5.88 7.407M126.11 148.262l-4.348 10.992" stroke-width="1.2" stroke="#00f" stroke-miterlimit="10" fill="none"/><path d="M121.762 159.254l-4.344 10.996" stroke-width="1.2" stroke="#000" stroke-miterlimit="10" fill="none"/><path d="M132.113 188.766l11.696-1.73" stroke-width="1.2" stroke="#00f" stroke-miterlimit="10" fill="none"/><path d="M143.81 187.035l11.69-1.734" stroke-width="1.2" stroke="#000" stroke-miterlimit="10" fill="none"/><path d="M129.113 183.266h7v11h-7zm0 0" fill="#fff"/><use xlink:href="#c" x="129.113" y="191.929" fill="#00f"/><path d="M155.5 185.3l9.113 7.528" stroke-width="1.2" stroke="#000" stroke-miterlimit="10" fill="none"/><path d="M164.613 192.828l9.114 7.53" stroke-width="1.2" stroke="#00f" stroke-miterlimit="10" fill="none"/><path d="M160.867 182.516l7.29 6.023" stroke-width="1.2" stroke="#000" stroke-miterlimit="10" fill="none"/><path d="M168.156 188.54l7.29 6.023" stroke-width="1.2" stroke="#00f" stroke-miterlimit="10" fill="none"/><path d="M164.19 163.313L155.5 185.3" stroke-width="1.2" stroke="#000" stroke-miterlimit="10" fill="none"/><path d="M173.727 200.36l19.953-12.68" stroke-width="1.2" stroke="#00f" stroke-miterlimit="10" fill="none"/><path d="M170.727 194.86h7v11h-7zm0 0" fill="#fff"/><use xlink:href="#c" x="170.727" y="203.522" fill="#00f"/><path d="M193.68 187.68l-2.95-11.45" stroke-width="1.2" stroke="#00f" stroke-miterlimit="10" fill="none"/><path d="M190.73 176.23l-2.945-11.445" stroke-width="1.2" stroke="#000" stroke-miterlimit="10" fill="none"/><path d="M186.68 182.18h14v11h-14zm0 0" fill="#fff"/><g fill="#00f"><use xlink:href="#c" x="186.68" y="190.843"/><use xlink:href="#d" x="193.657" y="190.843"/></g><path d="M187.785 164.785l7.53-9.113" stroke-width="1.2" stroke="#000" stroke-miterlimit="10" fill="none"/><path d="M195.316 155.672l7.528-9.113" stroke-width="1.2" stroke="#00f" stroke-miterlimit="10" fill="none"/><path d="M187.785 164.785l-23.594-1.472M185.078 170.188l-18.875-1.176" stroke-width="1.2" stroke="#000" stroke-miterlimit="10" fill="none"/><path d="M202.844 146.56l11.656 1.963" stroke-width="1.2" stroke="#00f" stroke-miterlimit="10" fill="none"/><path d="M214.5 148.523l11.656 1.965" stroke-width="1.2" stroke="#000" stroke-miterlimit="10" fill="none"/><path d="M195.844 141.06h14v11h-14zm0 0" fill="#fff"/><g fill="#00f"><use xlink:href="#c" x="195.844" y="149.722"/><use xlink:href="#d" x="202.821" y="149.722"/></g><path d="M223.55 151.457l4.126 11.078" stroke-width="1.2" stroke="#000" stroke-miterlimit="10" fill="none"/><path d="M227.676 162.535l4.13 11.078" stroke-width="1.2" stroke="#f00" stroke-miterlimit="10" fill="none"/><path d="M228.762 149.516l4.13 11.078" stroke-width="1.2" stroke="#000" stroke-miterlimit="10" fill="none"/><path d="M232.89 160.594l4.126 11.078" stroke-width="1.2" stroke="#f00" stroke-miterlimit="10" fill="none"/><path d="M226.156 150.488l15.06-18.226" stroke-width="1.2" stroke="#000" stroke-miterlimit="10" fill="none"/><path d="M230.41 167.14h8v11h-8zm0 0" fill="#fff"/><use xlink:href="#b" x="230.41" y="175.804" fill="#f00"/><path d="M241.215 132.262l23.535-2.24M238.977 108.727l2.238 23.535M264.75 130.023l-2.238-23.535M262.512 106.488l-23.535 2.24M164.19 163.313l-14.698-18.52M149.492 144.793l-11.69 1.734" stroke-width="1.2" stroke="#000" stroke-miterlimit="10" fill="none"/><path d="M137.8 146.527l-11.69 1.735" stroke-width="1.2" stroke="#00f" stroke-miterlimit="10" fill="none"/><path d="M147.973 150.645l-9.356 1.386" stroke-width="1.2" stroke="#000" stroke-miterlimit="10" fill="none"/><path d="M138.617 152.03l-9.355 1.388" stroke-width="1.2" stroke="#00f" stroke-miterlimit="10" fill="none"/><path d="M123.11 142.762h7v11h-7zm0 0" fill="#fff"/><use xlink:href="#c" x="123.109" y="151.425" fill="#00f"/></g></svg>
